images/svg/workato.svg

<svg xmlns="http://www.w3.org/2000/svg"
aria-label="Workato" role="img"
viewBox="0 0 512 512"
fill="#fff"><rect
width="512" height="512"
fill="#fff"/><path fill="#27989F" d="M156 386c-32-77-61-167-86-259h64c11 51 30 130 49 186 15-49 35-124 48-186h50c13 62 32 137 49 186 18-56 37-135 48-186h64c-25 92-54 182-86 259h-49c-19-54-35-104-51-163-16 59-32 109-51 163z"/></svg>

<svg xmlns="http://www.w3.org/2000/svg"
aria-label="Workato" role="img"
viewBox="0 0 512 512"
fill="#fff"><rect
width="512" height="512"
fill="#fff"/><path fill="#27989F" d="M205 386L156 386C124 309 95 219 70 127L134 127C145 178 164 257 183 313C198 264 218 189 231 127L281 127C294 189 313 264 330 313C348 257 367 178 378 127L442 127C417 219 388 309 356 386L307 386C288 332 272 282 256 223C240 282 224 332 205 386Z"/></svg>
